Catalina-light/status/16/battery-080.svg

<svg width="16" height="16" enable-background="new" version="1.1" xmlns="http://www.w3.org/2000/svg">
<path d="m1 6v6c0 0.5 0 0.5 0.5 0.5h4.5v1h-4.5c-1.2459 0-1.5-0.25-1.5-1.5v-6.5c0-0.74742 0.75412-1 1.5-1h5v1h-5c-0.5 0-0.5 0-0.5 0.5z" fill="#0e0e0e"/>
<path d="m13 12v-6c0-0.5 0-0.5-0.5-0.5h-4v-1h4c1.2459 0 1.5 0.25 1.5 1.5v6.5c0 0.74742-0.25412 1-1 1h-5v-1h4.5c0.5 0 0.5 0 0.5-0.5z" fill="#0e0e0e"/>
<path d="m15 7.5c1.4047 0.3053 1.1021 2.9272 0 3z" fill="#0e0e0e"/>
<path d="m15 7.5h-0.5v3h0.5z" fill="#0e0e0e"/>
<path d="m2 6.5v5h8v-5z" fill="#0e0e0e"/>
<path d="m6.5 4.5h2v1h-2z" fill="#0e0e0e"/>
<path d="m5.5 12.5h3v1h-3z" fill="#0e0e0e"/>
</svg>

<?xml version="1.0" encoding="UTF-8" standalone="no"?>
<!-- Created with Inkscape (http://www.inkscape.org/) -->

<svg
   xmlns:dc="http://purl.org/dc/elements/1.1/"
   xmlns:cc="http://creativecommons.org/ns#"
   xmlns:rdf="http://www.w3.org/1999/02/22-rdf-syntax-ns#"
   xmlns:svg="http://www.w3.org/2000/svg"
   xmlns="http://www.w3.org/2000/svg"
   xmlns:xlink="http://www.w3.org/1999/xlink"
   xmlns:sodipodi="http://sodipodi.sourceforge.net/DTD/sodipodi-0.dtd"
   xmlns:inkscape="http://www.inkscape.org/namespaces/inkscape"
   id="svg7384"
   style="enable-background:new"
   height="16"
   width="16"
   version="1.1"
   inkscape:version="0.92.4 5da689c313, 2019-01-14"
   sodipodi:docname="battery-080.svg">
  <sodipodi:namedview
     pagecolor="#a1a1a1"
     bordercolor="#666666"
     borderopacity="1"
     objecttolerance="10"
     gridtolerance="10"
     guidetolerance="10"
     inkscape:pageopacity="0"
     inkscape:pageshadow="2"
     inkscape:window-width="1920"
     inkscape:window-height="1023"
     id="namedview11"
     showgrid="true"
     inkscape:zoom="45.254834"
     inkscape:cx="7.0058732"
     inkscape:cy="7.6655212"
     inkscape:window-x="0"
     inkscape:window-y="31"
     inkscape:window-maximized="1"
     inkscape:current-layer="svg7384"
     showguides="true"
     inkscape:guide-bbox="true">
    <inkscape:grid
       type="xygrid"
       id="grid843"
       spacingx="0.5"
       spacingy="0.5" />
    <sodipodi:guide
       position="0.25411649,11.5"
       orientation="1,0"
       id="guide920"
       inkscape:locked="false" />
    <sodipodi:guide
       position="0.25411649,11.247417"
       orientation="0,1"
       id="guide922"
       inkscape:locked="false" />
    <sodipodi:guide
       position="0.4609375,2.75"
       orientation="0,1"
       id="guide928"
       inkscape:locked="false" />
  </sodipodi:namedview>
  <metadata
     id="metadata90">
    <rdf:RDF>
      <cc:Work
         rdf:about="">
        <dc:format>image/svg+xml</dc:format>
        <dc:type
           rdf:resource="http://purl.org/dc/dcmitype/StillImage" />
        <dc:title>Paper Symbolic Icon Theme</dc:title>
      </cc:Work>
    </rdf:RDF>
  </metadata>
  <title
     id="title8473">Paper Symbolic Icon Theme</title>
  <defs
     id="defs7386">
    <filter
       id="filter7554"
       style="color-interpolation-filters:sRGB">
      <feBlend
         id="feBlend7556"
         in2="BackgroundImage"
         mode="darken" />
    </filter>
    <filter
       style="color-interpolation-filters:sRGB"
       id="filter7554-5">
      <feBlend
         mode="darken"
         in2="BackgroundImage"
         id="feBlend7556-4" />
    </filter>
    <filter
       id="filter7554-6"
       style="color-interpolation-filters:sRGB">
      <feBlend
         mode="darken"
         in2="BackgroundImage"
         id="feBlend7556-6" />
    </filter>
    <linearGradient
       x1="8.9254236"
       y1="5.9997859"
       x2="8.9254236"
       y2="19"
       id="linearGradient2868"
       xlink:href="#linearGradient3678"
       gradientUnits="userSpaceOnUse"
       gradientTransform="translate(-1,-2)" />
    <linearGradient
       id="linearGradient3678">
      <stop
         id="stop3680"
         style="stop-color:#ffffff;stop-opacity:1"
         offset="0" />
      <stop
         id="stop3682"
         style="stop-color:#e6e6e6;stop-opacity:1"
         offset="1" />
    </linearGradient>
    <linearGradient
       x1="9"
       y1="3"
       x2="9"
       y2="21"
       id="linearGradient2393"
       xlink:href="#linearGradient3678"
       gradientUnits="userSpaceOnUse"
       gradientTransform="translate(-2,-1)" />
    <linearGradient
       gradientTransform="translate(-1.0001235,-5)"
       gradientUnits="userSpaceOnUse"
       xlink:href="#linearGradient3587-6-5-3"
       id="linearGradient2398"
       y2="21"
       x2="14"
       y1="3"
       x1="14" />
    <linearGradient
       id="linearGradient3587-6-5-3">
      <stop
         offset="0"
         style="stop-color:#000000;stop-opacity:1"
         id="stop3589-9-2-0" />
      <stop
         offset="1"
         style="stop-color:#363636;stop-opacity:1"
         id="stop3591-7-4-7" />
    </linearGradient>
    <linearGradient
       gradientTransform="translate(-52.096803,-11.363826)"
       gradientUnits="userSpaceOnUse"
       xlink:href="#linearGradient3587-6-5-3"
       id="linearGradient2395"
       y2="27.363825"
       x2="66.09668"
       y1="9.3638258"
       x1="66.09668" />
    <linearGradient
       gradientUnits="userSpaceOnUse"
       xlink:href="#linearGradient3587-6-5-3"
       id="linearGradient7390"
       y2="13.496136"
       x2="4.9554448"
       y1="2.6841583"
       x1="4.9554448" />
    <linearGradient
       gradientUnits="userSpaceOnUse"
       xlink:href="#linearGradient3587-6-5-3"
       id="linearGradient7392"
       y2="11.649005"
       x2="7.9109159"
       y1="4.5762329"
       x1="7.9109159" />
    <linearGradient
       gradientUnits="userSpaceOnUse"
       xlink:href="#linearGradient3587-6-5-3"
       id="linearGradient7394"
       y2="13.317288"
       x2="10.186814"
       y1="2.7742527"
       x1="10.186814" />
    <linearGradient
       gradientUnits="userSpaceOnUse"
       xlink:href="#linearGradient3587-6-5-3"
       id="linearGradient7396"
       y2="15.183488"
       x2="13.917011"
       y1="0.88217813"
       x1="13.917011" />
    <linearGradient
       id="linearGradient5263">
      <stop
         offset="0"
         style="stop-color:#a0d5ff;stop-opacity:1"
         id="stop5265" />
      <stop
         offset="1"
         style="stop-color:#a0d5ff;stop-opacity:1"
         id="stop5267" />
    </linearGradient>
    <filter
       style="color-interpolation-filters:sRGB"
       id="filter7554-7">
      <feBlend
         mode="darken"
         in2="BackgroundImage"
         id="feBlend7556-0" />
    </filter>
    <filter
       style="color-interpolation-filters:sRGB"
       id="filter7554-35">
      <feBlend
         mode="darken"
         in2="BackgroundImage"
         id="feBlend7556-35" />
    </filter>
    <filter
       id="filter7554-5-9"
       style="color-interpolation-filters:sRGB">
      <feBlend
         id="feBlend7556-4-5"
         in2="BackgroundImage"
         mode="darken" />
    </filter>
    <filter
       style="color-interpolation-filters:sRGB"
       id="filter7554-6-3">
      <feBlend
         id="feBlend7556-6-2"
         in2="BackgroundImage"
         mode="darken" />
    </filter>
    <filter
       id="filter7554-2"
       style="color-interpolation-filters:sRGB">
      <feBlend
         id="feBlend7556-9"
         in2="BackgroundImage"
         mode="darken" />
    </filter>
    <filter
       id="filter7554-29"
       style="color-interpolation-filters:sRGB">
      <feBlend
         id="feBlend7556-3"
         in2="BackgroundImage"
         mode="darken" />
    </filter>
    <filter
       id="filter7554-0"
       style="color-interpolation-filters:sRGB">
      <feBlend
         id="feBlend7556-5"
         in2="BackgroundImage"
         mode="darken" />
    </filter>
    <filter
       id="filter7554-3"
       style="color-interpolation-filters:sRGB">
      <feBlend
         id="feBlend7556-48"
         in2="BackgroundImage"
         mode="darken" />
    </filter>
    <filter
       style="color-interpolation-filters:sRGB"
       id="filter7554-5-3">
      <feBlend
         mode="darken"
         in2="BackgroundImage"
         id="feBlend7556-4-4" />
    </filter>
    <filter
       id="filter7554-6-8"
       style="color-interpolation-filters:sRGB">
      <feBlend
         mode="darken"
         in2="BackgroundImage"
         id="feBlend7556-6-4" />
    </filter>
    <filter
       style="color-interpolation-filters:sRGB"
       id="filter7554-7-7">
      <feBlend
         mode="darken"
         in2="BackgroundImage"
         id="feBlend7556-0-2" />
    </filter>
    <filter
       style="color-interpolation-filters:sRGB"
       id="filter7554-61">
      <feBlend
         mode="darken"
         in2="BackgroundImage"
         id="feBlend7556-98" />
    </filter>
    <filter
       id="filter7554-5-8"
       style="color-interpolation-filters:sRGB">
      <feBlend
         id="feBlend7556-4-6"
         in2="BackgroundImage"
         mode="darken" />
    </filter>
    <filter
       style="color-interpolation-filters:sRGB"
       id="filter7554-6-84">
      <feBlend
         id="feBlend7556-6-1"
         in2="BackgroundImage"
         mode="darken" />
    </filter>
    <filter
       id="filter7554-7-71"
       style="color-interpolation-filters:sRGB">
      <feBlend
         id="feBlend7556-0-3"
         in2="BackgroundImage"
         mode="darken" />
    </filter>
    <filter
       id="filter7554-35-2"
       style="color-interpolation-filters:sRGB">
      <feBlend
         id="feBlend7556-35-1"
         in2="BackgroundImage"
         mode="darken" />
    </filter>
    <filter
       style="color-interpolation-filters:sRGB"
       id="filter7554-5-9-1">
      <feBlend
         mode="darken"
         in2="BackgroundImage"
         id="feBlend7556-4-5-9" />
    </filter>
    <filter
       id="filter7554-6-3-8"
       style="color-interpolation-filters:sRGB">
      <feBlend
         mode="darken"
         in2="BackgroundImage"
         id="feBlend7556-6-2-4" />
    </filter>
    <filter
       style="color-interpolation-filters:sRGB"
       id="filter7554-2-7">
      <feBlend
         mode="darken"
         in2="BackgroundImage"
         id="feBlend7556-9-4" />
    </filter>
    <filter
       style="color-interpolation-filters:sRGB"
       id="filter7554-29-9">
      <feBlend
         mode="darken"
         in2="BackgroundImage"
         id="feBlend7556-3-2" />
    </filter>
    <filter
       style="color-interpolation-filters:sRGB"
       id="filter7554-0-9">
      <feBlend
         mode="darken"
         in2="BackgroundImage"
         id="feBlend7556-5-0" />
    </filter>
    <filter
       style="color-interpolation-filters:sRGB"
       id="filter7554-3-6">
      <feBlend
         mode="darken"
         in2="BackgroundImage"
         id="feBlend7556-48-5" />
    </filter>
    <filter
       id="filter7554-5-3-1"
       style="color-interpolation-filters:sRGB">
      <feBlend
         id="feBlend7556-4-4-5"
         in2="BackgroundImage"
         mode="darken" />
    </filter>
    <filter
       style="color-interpolation-filters:sRGB"
       id="filter7554-6-8-6">
      <feBlend
         id="feBlend7556-6-4-2"
         in2="BackgroundImage"
         mode="darken" />
    </filter>
    <filter
       id="filter7554-7-7-1"
       style="color-interpolation-filters:sRGB">
      <feBlend
         id="feBlend7556-0-2-4"
         in2="BackgroundImage"
         mode="darken" />
    </filter>
    <filter
       style="color-interpolation-filters:sRGB"
       id="filter7554-22">
      <feBlend
         mode="darken"
         in2="BackgroundImage"
         id="feBlend7556-01" />
    </filter>
    <filter
       id="filter7554-5-6"
       style="color-interpolation-filters:sRGB">
      <feBlend
         id="feBlend7556-4-2"
         in2="BackgroundImage"
         mode="darken" />
    </filter>
    <filter
       style="color-interpolation-filters:sRGB"
       id="filter7554-6-6">
      <feBlend
         id="feBlend7556-6-16"
         in2="BackgroundImage"
         mode="darken" />
    </filter>
    <filter
       id="filter7554-7-6"
       style="color-interpolation-filters:sRGB">
      <feBlend
         id="feBlend7556-0-1"
         in2="BackgroundImage"
         mode="darken" />
    </filter>
    <filter
       id="filter7554-35-9"
       style="color-interpolation-filters:sRGB">
      <feBlend
         id="feBlend7556-35-4"
         in2="BackgroundImage"
         mode="darken" />
    </filter>
    <filter
       style="color-interpolation-filters:sRGB"
       id="filter7554-5-9-0">
      <feBlend
         mode="darken"
         in2="BackgroundImage"
         id="feBlend7556-4-5-1" />
    </filter>
    <filter
       id="filter7554-6-3-7"
       style="color-interpolation-filters:sRGB">
      <feBlend
         mode="darken"
         in2="BackgroundImage"
         id="feBlend7556-6-2-3" />
    </filter>
    <filter
       style="color-interpolation-filters:sRGB"
       id="filter7554-2-0">
      <feBlend
         mode="darken"
         in2="BackgroundImage"
         id="feBlend7556-9-3" />
    </filter>
    <filter
       style="color-interpolation-filters:sRGB"
       id="filter7554-29-5">
      <feBlend
         mode="darken"
         in2="BackgroundImage"
         id="feBlend7556-3-0" />
    </filter>
    <filter
       style="color-interpolation-filters:sRGB"
       id="filter7554-0-4">
      <feBlend
         mode="darken"
         in2="BackgroundImage"
         id="feBlend7556-5-6" />
    </filter>
    <filter
       style="color-interpolation-filters:sRGB"
       id="filter7554-3-8">
      <feBlend
         mode="darken"
         in2="BackgroundImage"
         id="feBlend7556-48-4" />
    </filter>
    <filter
       id="filter7554-5-3-0"
       style="color-interpolation-filters:sRGB">
      <feBlend
         id="feBlend7556-4-4-0"
         in2="BackgroundImage"
         mode="darken" />
    </filter>
    <filter
       style="color-interpolation-filters:sRGB"
       id="filter7554-6-8-64">
      <feBlend
         id="feBlend7556-6-4-9"
         in2="BackgroundImage"
         mode="darken" />
    </filter>
    <filter
       id="filter7554-7-7-9"
       style="color-interpolation-filters:sRGB">
      <feBlend
         id="feBlend7556-0-2-0"
         in2="BackgroundImage"
         mode="darken" />
    </filter>
  </defs>
  <g
     style="fill:#ffffff;fill-opacity:1;stroke:none;stroke-opacity:1;enable-background:new"
     id="g908"
     transform="translate(-1,-9)" />
  <path
     style="fill:#0e0e0e;fill-opacity:1;stroke:none;stroke-width:0.1;stroke-linecap:butt;stroke-linejoin:miter;stroke-miterlimit:4;stroke-dasharray:none;stroke-opacity:0.64253396"
     d="m 1,6 v 6 c 0,0.5 0,0.5 0.5,0.5 H 6 v 1 H 1.5 C 0.254116,13.5 0,13.25 0,12 V 5.5 c 0,-0.747417 0.754116,-1 1.5,-1 h 5 v 1 h -5 C 1,5.5 1,5.5 1,6 Z"
     id="path916"
     inkscape:connector-curvature="0"
     sodipodi:nodetypes="ccccccccccccc" />
  <path
     sodipodi:nodetypes="ccccccccccccc"
     inkscape:connector-curvature="0"
     id="path930"
     d="M 13,12 V 6 C 13,5.5 13,5.5 12.5,5.5 h -4 v -1 h 4 C 13.745884,4.5 14,4.75 14,6 v 6.5 c 0,0.747417 -0.254116,1 -1,1 H 8 v -1 h 4.5 c 0.5,0 0.5,0 0.5,-0.5 z"
     style="fill:#0e0e0e;fill-opacity:1;stroke:none;stroke-width:0.1;stroke-linecap:butt;stroke-linejoin:miter;stroke-miterlimit:4;stroke-dasharray:none;stroke-opacity:0.64253396" />
  <path
     style="fill:#0e0e0e;fill-opacity:1;stroke:none;stroke-width:1px;stroke-linecap:butt;stroke-linejoin:miter;stroke-opacity:1"
     d="m 15,7.5 c 1.404731,0.3052974 1.102084,2.92722 0,3 z"
     id="path932"
     inkscape:connector-curvature="0"
     sodipodi:nodetypes="ccc" />
  <path
     style="fill:#0e0e0e;stroke:none;stroke-width:1px;stroke-linecap:butt;stroke-linejoin:miter;stroke-opacity:1;fill-opacity:1"
     d="m 15,7.5 h -0.5 v 3 H 15 Z"
     id="path936"
     inkscape:connector-curvature="0" />
  <path
     style="fill:#0e0e0e;fill-opacity:1;stroke:none;stroke-width:1px;stroke-linecap:butt;stroke-linejoin:miter;stroke-opacity:1"
     d="m 2,6.5 v 5 h 8 v -5 z"
     id="path938"
     inkscape:connector-curvature="0"
     sodipodi:nodetypes="ccccc" />
  <path
     style="fill:#0e0e0e;stroke:none;stroke-width:1px;stroke-linecap:butt;stroke-linejoin:miter;stroke-opacity:1;fill-opacity:1"
     d="m 6.5,4.5 h 2 v 1 h -2 z"
     id="path940"
     inkscape:connector-curvature="0" />
  <path
     style="fill:#0e0e0e;stroke:none;stroke-width:1px;stroke-linecap:butt;stroke-linejoin:miter;stroke-opacity:1;fill-opacity:1"
     d="m 5.5,12.5 h 3 v 1 h -3 z"
     id="path942"
     inkscape:connector-curvature="0" />
</svg>
